X:1
T:Lago Garda, 12.12.12.12
T:Lago Garda, 12.12.12.12
T:John Ireland Tucker (1819–1895)
T:Public Domain Courtesy of the Cyber Hymnal™
C:John Ireland Tucker (1819–1895)
Z:Public Domain
Z:Courtesy of the Cyber Hymnal™
%%score ( 1 2 ) ( 3 4 )
L:1/8
Q:1/4=104
M:4/4
K:Eb
V:1 treble 
V:2 treble 
V:3 bass 
V:4 bass 
V:1
 [EB]2 [E=A]2 [^Fc]2 [GB]2 | [EG]3 [DF] E4 | [CF]2 [=EG]2 [FB]3 [FA] | ([EG]4 [DF]4) | %4
 [EB]2 [E=A]2 [^Fc]2 [GB]2 | [DG]3 [DF] E4 | [CF]2 [FA]2 [EG]3 [DF] | E8 | %8
 [DF]2 [DF]2 [E_G]2 [EG]2 | ([_GB][FA]) [EG]2 [DF]4 | [EF]2 [EG]2 [E=A]2 [Ec]2 | [DB]8 | %12
 [EB]2 [E=A]2 [^Fc]2 [GB]2 | [DG]3 [DF] E4 | [CF]2 [EA]2 [EG]2 (G>F) | E8 |] %16
V:2
 x8 | x4 E4 | x8 | x8 | x8 | x4 E4 | x8 | E8 | x8 | x8 | x8 | x8 | x8 | x4 E4 | x6 D2 | E8 |] %16
V:3
 [E,G,]2 [E,^F,]2 [E,=A,]2 [E,B,]2 | [B,,B,]3 [B,,A,] [C,G,]4 | [A,C]2 [G,B,]2 [F,C]3 [F,C] | %3
 (B,2 =A,2 B,4) | [E,G,]2 [E,^F,]2 [D,=A,]2 [D,B,]2 | [B,,B,]3 [=B,,A,] [C,G,]4 | %6
 [A,,A,]2 [F,,C]2 [B,,B,]3 [B,,A,] | [E,G,]8 | [B,,B,]2 [B,,B,]2 [B,,B,]2 [B,,B,]2 | %9
 [B,,B,]2 [B,,B,]2 [B,,B,]4 | [F,=A,]2 [F,B,]2 [F,C]2 [F,A,]2 | (B,4 A,4) | %12
 [E,G,]2 [E,^F,]2 [E,=A,]2 [E,B,]2 | [B,,B,]3 [B,,A,] [E,G,]4 | [A,,A,]2 [F,,C]2 [B,,B,]2 (B,>A,) | %15
 [E,G,]8 |] %16
V:4
 x8 | x8 | x8 | B,,8 | x8 | x8 | x8 | x8 | x8 | x8 | x8 | B,,8 | x8 | x8 | x6 B,,2 | x8 |] %16

